flaticon/gastronomy/groceries.svg

<svg xmlns="http://www.w3.org/2000/svg" width="32" height="32" viewBox="0 0 24 24">
    <path d="M15.320312 10.6875C15.363281 10.703125 15.410156 10.710938 15.457031 10.710938 15.632812 10.710938 15.796875 10.601562 15.855469 10.425781 15.988281 10.035156 16.410156 9.828125 16.796875 9.960938 17.625 10.242188 18.53125 9.796875 18.8125 8.964844 18.886719 8.746094 18.769531 8.507812 18.546875 8.429688 18.328125 8.355469 18.085938 8.472656 18.011719 8.695312 17.878906 9.082031 17.457031 9.292969 17.070312 9.160156 16.242188 8.878906 15.335938 9.324219 15.054688 10.152344 14.980469 10.375 15.097656 10.613281 15.320312 10.6875zM16.320312 7.746094C16.363281 7.761719 16.410156 7.769531 16.453125 7.769531 16.632812 7.769531 16.796875 7.65625 16.855469 7.480469 16.917969 7.292969 17.050781 7.140625 17.230469 7.054688 17.40625 6.964844 17.609375 6.953125 17.796875 7.015625 18.625 7.296875 19.53125 6.851562 19.8125 6.023438 19.886719 5.804688 19.769531 5.5625 19.546875 5.488281 19.328125 5.410156 19.085938 5.53125 19.011719 5.75 18.878906 6.140625 18.457031 6.347656 18.070312 6.214844 17.667969 6.082031 17.238281 6.109375 16.855469 6.296875 16.476562 6.484375 16.191406 6.808594 16.054688 7.210938 15.980469 7.429688 16.097656 7.671875 16.320312 7.746094zM17.316406 4.804688C17.363281 4.816406 17.410156 4.824219 17.453125 4.824219 17.628906 4.824219 17.792969 4.714844 17.855469 4.539062 17.949219 4.253906 18.265625 4.097656 18.550781 4.195312 18.902344 4.316406 19.28125 4.289062 19.613281 4.125 19.949219 3.960938 20.199219 3.675781 20.316406 3.324219 20.394531 3.105469 20.273438 2.863281 20.054688 2.789062 19.832031 2.710938 19.59375 2.832031 19.519531 3.050781 19.46875 3.191406 19.371094 3.304688 19.242188 3.367188 19.109375 3.433594 18.960938 3.441406 18.820312 3.394531 18.09375 3.148438 17.300781 3.539062 17.054688 4.265625 16.980469 4.488281 17.097656 4.726562 17.316406 4.804688zM17.316406 4.804688"/>
    <path d="M 20.378906 10.65625 C 20.304688 10.609375 20.222656 10.578125 20.136719 10.566406 C 20.976562 7.839844 21.4375 5.167969 21.503906 2.625 C 21.523438 1.824219 21.132812 0.753906 20.34375 0.261719 C 19.964844 0.0234375 19.34375 -0.171875 18.539062 0.242188 C 17.277344 0.890625 16.375 2.804688 15.652344 4.347656 C 15.609375 4.433594 15.566406 4.519531 15.527344 4.605469 C 15.367188 3.871094 14.882812 3.242188 14.1875 2.914062 C 14.027344 2.128906 13.40625 1.515625 12.625 1.355469 C 12.613281 1.3125 12.605469 1.269531 12.589844 1.222656 C 12.429688 0.675781 11.945312 0.261719 11.382812 0.195312 C 11.066406 0.15625 10.753906 0.222656 10.484375 0.378906 C 10.257812 0.25 10.003906 0.183594 9.738281 0.183594 C 9.003906 0.183594 8.386719 0.695312 8.226562 1.382812 C 7.425781 1.601562 6.835938 2.335938 6.828125 3.195312 C 5.914062 3.429688 5.246094 4.257812 5.246094 5.242188 C 5.246094 5.503906 5.292969 5.761719 5.386719 6.007812 C 5.152344 6.300781 5.019531 6.667969 5.019531 7.050781 C 5.019531 7.285156 5.066406 7.507812 5.15625 7.714844 C 4.734375 7.253906 4.140625 6.875 3.472656 6.902344 C 3.242188 6.910156 3.058594 7.101562 3.066406 7.335938 C 3.070312 7.566406 3.257812 7.746094 3.488281 7.746094 C 3.5 7.746094 3.515625 7.746094 3.527344 7.746094 C 3.921875 7.746094 4.292969 8.007812 4.558594 8.3125 C 3.890625 8.503906 3.082031 8.816406 2.703125 9.527344 C 2.476562 9.957031 2.453125 10.484375 2.601562 11.085938 C 2.53125 11.207031 2.488281 11.347656 2.496094 11.5 L 3.214844 21.714844 C 3.28125 22.996094 4.335938 24 5.621094 24 L 17.476562 24 C 18.757812 24 19.8125 22.996094 19.878906 21.722656 L 20.617188 11.152344 C 20.617188 11.152344 20.617188 11.148438 20.617188 11.144531 C 20.628906 10.949219 20.539062 10.769531 20.378906 10.65625 Z M 15.871094 5.816406 C 16.039062 5.503906 16.222656 5.117188 16.414062 4.707031 C 17.050781 3.355469 17.921875 1.511719 18.925781 0.992188 C 19.292969 0.800781 19.609375 0.796875 19.894531 0.976562 C 20.382812 1.28125 20.671875 2.058594 20.65625 2.601562 C 20.59375 5.097656 20.136719 7.726562 19.300781 10.414062 C 19.273438 10.5 19.214844 10.679688 19.125 10.925781 L 18.40625 11.246094 C 18.390625 11.25 18.375 11.257812 18.363281 11.269531 C 18.152344 11.394531 17.921875 11.453125 17.6875 11.457031 C 17.453125 11.453125 17.222656 11.394531 17.015625 11.269531 L 16.710938 11.085938 C 16.367188 10.878906 15.976562 10.777344 15.589844 10.777344 C 15.585938 10.777344 15.582031 10.777344 15.574219 10.777344 C 15.183594 10.773438 14.789062 10.875 14.4375 11.085938 L 14.136719 11.269531 C 13.96875 11.367188 13.785156 11.417969 13.597656 11.4375 C 13.609375 11.402344 13.621094 11.367188 13.632812 11.328125 C 13.746094 10.9375 13.871094 10.550781 14 10.164062 C 14.050781 10.019531 14.101562 9.871094 14.152344 9.726562 C 14.261719 9.421875 14.375 9.121094 14.492188 8.820312 C 14.546875 8.6875 14.597656 8.550781 14.652344 8.417969 C 15.019531 7.519531 15.425781 6.648438 15.871094 5.816406 Z M 10.488281 6.816406 C 10.539062 6.753906 10.585938 6.691406 10.632812 6.632812 C 10.632812 6.628906 10.632812 6.628906 10.632812 6.628906 C 10.664062 6.585938 10.695312 6.539062 10.71875 6.492188 C 10.824219 6.296875 10.847656 6.078125 10.800781 5.863281 L 12.5625 5.476562 C 12.574219 5.53125 12.585938 5.585938 12.605469 5.636719 C 12.6875 5.828125 12.828125 5.988281 13.023438 6.101562 C 13.085938 6.136719 13.15625 6.171875 13.222656 6.210938 C 13.28125 6.238281 13.339844 6.269531 13.394531 6.300781 C 13.421875 6.316406 13.449219 6.332031 13.476562 6.347656 C 13.527344 6.375 13.578125 6.40625 13.625 6.4375 C 13.667969 6.464844 13.710938 6.488281 13.75 6.519531 C 13.796875 6.550781 13.839844 6.585938 13.886719 6.625 C 13.925781 6.65625 13.964844 6.691406 14 6.726562 C 14.039062 6.765625 14.082031 6.804688 14.117188 6.847656 C 14.183594 6.925781 14.246094 7.007812 14.296875 7.105469 C 14.117188 7.5 13.949219 7.902344 13.785156 8.308594 C 13.761719 8.371094 13.734375 8.433594 13.707031 8.496094 C 13.246094 8.613281 12.796875 8.835938 12.246094 9.226562 C 11.550781 9.722656 11.03125 9.851562 10.175781 9.730469 L 9.921875 8.554688 C 9.746094 7.761719 10.125 7.28125 10.488281 6.816406 Z M 12.582031 4.25 C 12.59375 4.25 12.605469 4.25 12.617188 4.25 C 12.695312 4.25 12.769531 4.304688 12.789062 4.386719 C 12.800781 4.445312 12.777344 4.492188 12.761719 4.515625 C 12.75 4.539062 12.714844 4.582031 12.65625 4.59375 L 10.320312 5.105469 C 10.226562 5.125 10.132812 5.0625 10.113281 4.96875 C 10.09375 4.878906 10.15625 4.78125 10.246094 4.761719 L 11.488281 4.492188 Z M 11.21875 10.785156 C 11.183594 10.785156 11.152344 10.789062 11.121094 10.789062 C 10.890625 10.8125 10.664062 10.871094 10.449219 10.96875 L 10.367188 10.601562 C 10.488281 10.609375 10.609375 10.621094 10.722656 10.621094 C 11.460938 10.621094 12.054688 10.402344 12.734375 9.914062 C 12.949219 9.761719 13.140625 9.648438 13.320312 9.550781 C 13.28125 9.660156 13.242188 9.769531 13.207031 9.882812 C 13.179688 9.960938 13.148438 10.039062 13.121094 10.121094 C 13 10.496094 12.878906 10.875 12.769531 11.257812 L 12.488281 11.089844 C 12.144531 10.878906 11.753906 10.777344 11.367188 10.777344 C 11.363281 10.777344 11.355469 10.777344 11.351562 10.777344 C 11.304688 10.777344 11.261719 10.78125 11.21875 10.785156 Z M 6.164062 6.417969 L 6.441406 6.1875 L 6.261719 5.878906 C 6.152344 5.683594 6.089844 5.464844 6.089844 5.242188 C 6.089844 4.558594 6.625 4 7.3125 3.972656 L 7.824219 3.949219 L 7.703125 3.449219 C 7.683594 3.367188 7.675781 3.285156 7.675781 3.207031 C 7.675781 2.664062 8.097656 2.203125 8.640625 2.164062 L 9.03125 2.132812 L 9.03125 1.714844 C 9.042969 1.332031 9.355469 1.027344 9.738281 1.027344 C 9.960938 1.027344 10.117188 1.128906 10.210938 1.214844 L 10.507812 1.480469 L 10.792969 1.199219 C 10.921875 1.070312 11.101562 1.011719 11.285156 1.03125 C 11.511719 1.058594 11.714844 1.234375 11.78125 1.464844 C 11.804688 1.539062 11.808594 1.613281 11.800781 1.6875 L 11.75 2.160156 L 12.226562 2.160156 C 12.832031 2.160156 13.339844 2.632812 13.382812 3.238281 L 13.402344 3.515625 L 13.664062 3.609375 C 14.324219 3.839844 14.757812 4.464844 14.746094 5.164062 C 14.738281 5.460938 14.640625 5.75 14.46875 6.003906 C 14.183594 5.761719 13.878906 5.601562 13.625 5.464844 C 13.558594 5.429688 13.492188 5.398438 13.429688 5.363281 C 13.410156 5.351562 13.390625 5.332031 13.382812 5.289062 C 13.371094 5.226562 13.394531 5.15625 13.441406 5.101562 C 13.625 4.886719 13.699219 4.597656 13.636719 4.320312 L 13.585938 4.089844 C 13.535156 3.855469 13.394531 3.652344 13.195312 3.523438 C 12.992188 3.394531 12.75 3.351562 12.515625 3.402344 L 12.402344 3.425781 C 12.402344 3.425781 12.398438 3.425781 12.398438 3.425781 L 11.160156 3.699219 L 9.949219 3.960938 C 9.714844 4.011719 9.515625 4.152344 9.382812 4.355469 C 9.253906 4.558594 9.210938 4.800781 9.261719 5.035156 L 9.289062 5.148438 C 9.289062 5.152344 9.289062 5.152344 9.289062 5.152344 L 9.3125 5.265625 C 9.375 5.546875 9.570312 5.785156 9.835938 5.898438 C 9.902344 5.925781 9.957031 5.980469 9.976562 6.035156 C 9.988281 6.066406 9.980469 6.082031 9.957031 6.121094 C 9.957031 6.121094 9.957031 6.121094 9.957031 6.125 C 9.914062 6.179688 9.867188 6.238281 9.824219 6.296875 C 9.777344 6.355469 9.726562 6.417969 9.679688 6.480469 C 9.664062 6.503906 9.648438 6.523438 9.628906 6.546875 C 9.59375 6.59375 9.558594 6.644531 9.527344 6.695312 C 9.507812 6.722656 9.488281 6.75 9.46875 6.777344 C 9.4375 6.828125 9.40625 6.878906 9.375 6.929688 C 9.359375 6.960938 9.339844 6.992188 9.324219 7.023438 C 9.292969 7.082031 9.265625 7.144531 9.234375 7.207031 C 9.222656 7.234375 9.210938 7.261719 9.199219 7.289062 C 9.164062 7.378906 9.128906 7.476562 9.101562 7.578125 C 9.097656 7.59375 9.097656 7.613281 9.09375 7.628906 C 9.074219 7.714844 9.058594 7.804688 9.046875 7.898438 C 9.042969 7.933594 9.042969 7.972656 9.039062 8.011719 C 9.035156 8.0625 9.027344 8.109375 9.027344 8.160156 C 9.027344 8.15625 9.027344 8.15625 9.023438 8.152344 C 9.019531 8.144531 9.011719 8.140625 9.007812 8.132812 C 8.933594 8.035156 8.859375 7.945312 8.785156 7.863281 C 8.761719 7.835938 8.738281 7.808594 8.714844 7.785156 C 8.652344 7.714844 8.589844 7.652344 8.527344 7.59375 C 8.507812 7.574219 8.488281 7.554688 8.46875 7.535156 C 8.386719 7.464844 8.308594 7.402344 8.230469 7.34375 C 8.207031 7.328125 8.183594 7.3125 8.160156 7.300781 C 8.101562 7.257812 8.042969 7.222656 7.980469 7.1875 C 7.949219 7.171875 7.921875 7.15625 7.890625 7.144531 C 7.828125 7.113281 7.765625 7.085938 7.703125 7.0625 C 7.679688 7.054688 7.660156 7.046875 7.636719 7.039062 C 7.570312 7.015625 7.5 7 7.429688 6.984375 C 7.421875 6.984375 7.414062 6.984375 7.40625 6.984375 C 7.390625 6.980469 7.378906 6.976562 7.363281 6.972656 C 7.3125 6.964844 7.265625 6.96875 7.21875 6.964844 C 7.183594 6.964844 7.152344 6.957031 7.117188 6.957031 C 7.109375 6.957031 7.097656 6.957031 7.085938 6.957031 C 7.019531 6.960938 6.957031 6.96875 6.894531 6.976562 C 6.863281 6.980469 6.832031 6.980469 6.800781 6.988281 C 6.714844 7.003906 6.636719 7.023438 6.554688 7.050781 C 6.542969 7.054688 6.53125 7.054688 6.519531 7.0625 C 6.308594 7.132812 6.109375 7.234375 5.921875 7.355469 C 5.882812 7.261719 5.863281 7.15625 5.863281 7.050781 C 5.863281 6.804688 5.972656 6.574219 6.164062 6.417969 Z M 3.453125 9.921875 C 3.628906 9.585938 4.0625 9.328125 4.816406 9.113281 C 5.167969 9.015625 5.496094 8.824219 5.761719 8.574219 C 5.882812 8.457031 5.996094 8.359375 6.105469 8.269531 C 6.445312 7.996094 6.738281 7.84375 7.003906 7.808594 C 7.007812 7.808594 7.015625 7.808594 7.019531 7.808594 C 7.105469 7.796875 7.1875 7.800781 7.265625 7.816406 C 7.285156 7.820312 7.308594 7.824219 7.328125 7.832031 C 7.367188 7.839844 7.40625 7.851562 7.445312 7.867188 C 7.472656 7.875 7.496094 7.890625 7.523438 7.902344 C 7.558594 7.921875 7.597656 7.9375 7.632812 7.960938 C 7.660156 7.976562 7.691406 8 7.71875 8.019531 C 7.753906 8.042969 7.789062 8.066406 7.820312 8.09375 C 7.855469 8.117188 7.886719 8.148438 7.917969 8.179688 C 7.949219 8.207031 7.980469 8.234375 8.015625 8.265625 C 8.050781 8.304688 8.085938 8.34375 8.121094 8.386719 C 8.152344 8.417969 8.179688 8.449219 8.210938 8.480469 C 8.25 8.53125 8.289062 8.585938 8.332031 8.636719 C 8.355469 8.671875 8.382812 8.703125 8.40625 8.738281 C 8.453125 8.804688 8.5 8.875 8.546875 8.945312 C 8.566406 8.976562 8.585938 9.003906 8.609375 9.035156 C 8.675781 9.140625 8.742188 9.253906 8.808594 9.375 C 9.121094 9.925781 9.222656 10.734375 9.089844 11.441406 C 9.066406 11.4375 9.046875 11.433594 9.023438 11.429688 C 8.863281 11.402344 8.707031 11.351562 8.566406 11.269531 L 8.265625 11.085938 C 7.917969 10.878906 7.53125 10.773438 7.140625 10.773438 C 7.136719 10.773438 7.132812 10.777344 7.128906 10.777344 C 6.734375 10.773438 6.339844 10.875 5.992188 11.085938 L 5.84375 11.175781 C 5.589844 11.328125 5.300781 11.40625 5.015625 11.40625 C 4.730469 11.40625 4.441406 11.328125 4.1875 11.175781 L 3.621094 10.832031 C 3.621094 10.832031 3.617188 10.832031 3.617188 10.832031 C 3.542969 10.789062 3.464844 10.757812 3.378906 10.742188 C 3.3125 10.410156 3.339844 10.140625 3.453125 9.921875 Z M 19.039062 21.671875 C 18.996094 22.503906 18.308594 23.15625 17.476562 23.15625 L 5.621094 23.15625 C 4.789062 23.15625 4.101562 22.503906 4.058594 21.664062 L 3.355469 11.679688 L 3.726562 11.898438 C 4.125 12.140625 4.570312 12.257812 5.015625 12.253906 C 5.460938 12.257812 5.910156 12.140625 6.308594 11.898438 L 6.453125 11.8125 C 6.664062 11.6875 6.894531 11.625 7.128906 11.621094 C 7.363281 11.625 7.59375 11.6875 7.800781 11.8125 L 8.101562 11.992188 C 8.484375 12.222656 8.917969 12.320312 9.34375 12.296875 C 9.378906 12.292969 9.417969 12.292969 9.457031 12.289062 C 9.460938 12.289062 9.464844 12.289062 9.472656 12.289062 C 9.757812 12.253906 10.042969 12.164062 10.304688 12.015625 C 10.328125 12.007812 10.355469 12.007812 10.378906 11.992188 L 10.679688 11.8125 C 10.886719 11.6875 11.117188 11.625 11.351562 11.621094 C 11.585938 11.625 11.816406 11.6875 12.027344 11.8125 L 12.328125 11.992188 C 12.648438 12.183594 13.003906 12.28125 13.359375 12.296875 C 13.367188 12.296875 13.375 12.300781 13.382812 12.300781 C 13.503906 12.304688 13.628906 12.300781 13.75 12.28125 C 13.820312 12.273438 13.890625 12.253906 13.957031 12.238281 C 13.992188 12.230469 14.023438 12.222656 14.058594 12.214844 C 14.246094 12.164062 14.429688 12.09375 14.601562 11.992188 L 14.902344 11.8125 C 15.109375 11.6875 15.34375 11.625 15.574219 11.621094 C 15.808594 11.625 16.039062 11.6875 16.25 11.8125 L 16.550781 11.992188 C 16.898438 12.203125 17.289062 12.304688 17.683594 12.300781 C 17.6875 12.300781 17.695312 12.304688 17.703125 12.304688 C 18.082031 12.304688 18.460938 12.203125 18.800781 12.007812 L 19.628906 11.636719 C 19.648438 11.628906 19.660156 11.613281 19.675781 11.605469 L 19.742188 11.574219 Z M 19.039062 21.671875"/>
    <path d="M5.03125 18.164062L7.988281 18.164062C8.21875 18.164062 8.410156 17.972656 8.410156 17.742188 8.410156 17.507812 8.21875 17.320312 7.988281 17.320312L5.03125 17.320312C4.796875 17.320312 4.609375 17.507812 4.609375 17.742188 4.609375 17.972656 4.796875 18.164062 5.03125 18.164062zM5.03125 19.851562L8.832031 19.851562C9.066406 19.851562 9.253906 19.664062 9.253906 19.429688 9.253906 19.195312 9.066406 19.007812 8.832031 19.007812L5.03125 19.007812C4.796875 19.007812 4.609375 19.195312 4.609375 19.429688 4.609375 19.664062 4.796875 19.851562 5.03125 19.851562zM9.675781 20.699219L5.03125 20.699219C4.796875 20.699219 4.609375 20.886719 4.609375 21.121094 4.609375 21.351562 4.796875 21.542969 5.03125 21.542969L9.675781 21.542969C9.910156 21.542969 10.097656 21.351562 10.097656 21.121094 10.097656 20.886719 9.910156 20.699219 9.675781 20.699219zM12.210938 20.699219L11.367188 20.699219C11.132812 20.699219 10.945312 20.886719 10.945312 21.121094 10.945312 21.351562 11.132812 21.542969 11.367188 21.542969L12.210938 21.542969C12.445312 21.542969 12.632812 21.351562 12.632812 21.121094 12.632812 20.886719 12.445312 20.699219 12.210938 20.699219zM12.210938 20.699219"/>
</svg>

<svg xmlns="http://www.w3.org/2000/svg" width="32" height="32" viewBox="0 0 24 24">
    <path d="M15.32 10.688a.419.419 0 0 0 .535-.262.74.74 0 0 1 .942-.465 1.591 1.591 0 0 0 2.015-.996.422.422 0 1 0-.8-.27.744.744 0 0 1-.942.465 1.592 1.592 0 0 0-2.015.992.42.42 0 0 0 .265.536zm0 0M16.32 7.746c.043.016.09.024.133.024.18 0 .344-.114.402-.29a.721.721 0 0 1 .375-.425.732.732 0 0 1 .567-.04 1.592 1.592 0 0 0 2.015-.992.422.422 0 0 0-.8-.273.74.74 0 0 1-.942.465 1.6 1.6 0 0 0-1.215.082 1.581 1.581 0 0 0-.8.914.422.422 0 0 0 .265.535zm0 0M17.316 4.805c.047.011.094.02.137.02.176 0 .34-.11.402-.286a.549.549 0 0 1 .696-.344c.351.121.73.094 1.062-.07.336-.164.586-.45.703-.8a.42.42 0 0 0-.261-.536.419.419 0 0 0-.535.262.556.556 0 0 1-.278.316.546.546 0 0 1-.422.028 1.394 1.394 0 0 0-1.765.87.428.428 0 0 0 .261.54zm0 0"/>
    <path d="M20.379 10.656a.607.607 0 0 0-.242-.09c.84-2.726 1.3-5.398 1.367-7.941.02-.8-.371-1.871-1.16-2.363-.38-.239-1-.434-1.805-.02-1.262.649-2.164 2.563-2.887 4.106-.043.086-.086.172-.125.257a2.436 2.436 0 0 0-1.34-1.69 2.008 2.008 0 0 0-1.562-1.56c-.012-.042-.02-.085-.035-.132A1.454 1.454 0 0 0 11.383.195a1.434 1.434 0 0 0-.899.184 1.498 1.498 0 0 0-.746-.195c-.734 0-1.351.511-1.511 1.199-.801.219-1.391.953-1.399 1.812a2.109 2.109 0 0 0-1.582 2.047c0 .262.047.52.14.766a1.671 1.671 0 0 0-.23 1.707c-.422-.461-1.015-.84-1.683-.813a.42.42 0 0 0-.407.434c.004.23.192.41.422.41h.04c.394 0 .765.262 1.03.566-.667.192-1.476.504-1.855 1.215-.226.43-.25.957-.101 1.559a.745.745 0 0 0-.106.414l.719 10.215A2.407 2.407 0 0 0 5.62 24h11.856a2.405 2.405 0 0 0 2.402-2.277l.738-10.57v-.008a.552.552 0 0 0-.238-.489zm-4.508-4.84c.168-.312.352-.699.543-1.109.637-1.352 1.508-3.195 2.512-3.715.367-.191.683-.195.969-.015.488.304.777 1.082.761 1.625-.062 2.496-.52 5.125-1.355 7.812-.028.086-.086.266-.176.512l-.719.32a1.356 1.356 0 0 1-.719.21 1.331 1.331 0 0 1-.671-.186l-.305-.184a2.175 2.175 0 0 0-1.121-.309h-.016a2.166 2.166 0 0 0-1.136.309l-.301.184a1.337 1.337 0 0 1-.54.168c.012-.036.024-.07.036-.11.113-.39.238-.777.367-1.164l.152-.437c.11-.305.223-.606.34-.907.055-.133.106-.27.16-.402a27.83 27.83 0 0 1 1.22-2.602zm-5.383 1c.051-.062.098-.125.145-.183v-.004c.031-.043.062-.09.086-.137a.902.902 0 0 0 .082-.629l1.761-.386c.012.054.024.109.043.16a.98.98 0 0 0 .418.465c.063.035.133.07.2.109a2.379 2.379 0 0 1 .254.137c.05.027.101.058.148.09.043.027.086.05.125.082.047.03.09.066.137.105a1.4 1.4 0 0 1 .113.102c.04.039.082.078.117.12.067.079.13.16.18.258-.18.395-.348.797-.512 1.204-.023.062-.05.125-.078.187-.46.117-.91.34-1.46.73-.696.497-1.216.626-2.071.504l-.254-1.175c-.176-.793.203-1.274.566-1.739zm2.094-2.566h.035c.078 0 .153.055.172.137a.172.172 0 0 1-.027.129.157.157 0 0 1-.106.078l-2.336.511a.177.177 0 0 1-.207-.136.18.18 0 0 1 .133-.207l1.242-.27zm-1.363 6.535c-.035 0-.067.004-.098.004-.23.024-.457.082-.672.18l-.082-.367c.121.007.242.02.356.02.738 0 1.332-.22 2.011-.708a5.65 5.65 0 0 1 .586-.363c-.039.11-.078.219-.113.332-.027.078-.059.156-.086.238-.121.375-.242.754-.351 1.137l-.282-.168a2.143 2.143 0 0 0-1.12-.313h-.016c-.047 0-.09.004-.133.008zM6.164 6.418l.277-.23-.18-.31a1.268 1.268 0 0 1 1.05-1.906l.513-.023-.12-.5a1.047 1.047 0 0 1 .938-1.285l.39-.031v-.418a.708.708 0 0 1 .706-.688.69.69 0 0 1 .473.188l.297.265.285-.28a.6.6 0 0 1 .492-.169.608.608 0 0 1 .516.657l-.051.472h.477c.605 0 1.113.473 1.156 1.078l.02.278.261.093c.66.23 1.094.856 1.082 1.555a1.572 1.572 0 0 1-.277.84c-.285-.242-.59-.402-.844-.54-.066-.034-.133-.066-.195-.1-.02-.012-.04-.032-.047-.075a.231.231 0 0 1 .058-.187.899.899 0 0 0 .196-.782l-.051-.23a.9.9 0 0 0-.39-.567.905.905 0 0 0-.68-.12l-.114.023h-.004l-1.238.273-1.21.262a.902.902 0 0 0-.688 1.074l.027.113v.004l.024.114c.062.28.257.52.523.632a.254.254 0 0 1 .14.137c.012.031.004.047-.019.086v.004c-.043.055-.09.113-.133.172-.047.058-.097.121-.144.183a1.987 1.987 0 0 0-.152.215l-.06.082-.093.153c-.016.03-.035.062-.05.093-.032.059-.06.122-.09.184l-.036.082c-.035.09-.07.188-.097.29-.004.015-.004.034-.008.05-.02.086-.035.176-.047.27-.004.035-.004.074-.008.113-.004.05-.012.097-.012.148 0-.004 0-.004-.004-.008-.003-.007-.011-.011-.015-.02a4.093 4.093 0 0 0-.293-.347 2.918 2.918 0 0 0-.188-.191l-.058-.059a4.653 4.653 0 0 0-.239-.191c-.023-.016-.046-.032-.07-.043a1.732 1.732 0 0 0-.18-.114c-.03-.015-.058-.03-.09-.042a1.952 1.952 0 0 0-.187-.082l-.066-.024a1.79 1.79 0 0 0-.207-.055h-.024l-.043-.011c-.05-.008-.097-.004-.144-.008-.035 0-.067-.008-.102-.008h-.031a2.882 2.882 0 0 0-.191.02c-.032.003-.063.003-.094.011a1.747 1.747 0 0 0-.246.063c-.012.004-.024.004-.035.011-.211.07-.41.172-.598.293a.814.814 0 0 1 .242-.938zm-2.71 3.504c.175-.336.608-.594 1.362-.809.352-.097.68-.289.946-.539.12-.117.234-.215.343-.304.34-.274.633-.426.899-.461h.016a.738.738 0 0 1 .246.007c.02.004.043.008.062.016.04.008.078.02.117.035.028.008.051.024.078.035.036.02.075.035.11.059.027.016.058.039.086.059.035.023.07.046.101.074.035.023.067.054.098.086l.098.086c.035.039.07.078.105.12l.09.094c.039.051.078.106.121.157.023.035.05.066.074.101.047.067.094.137.14.207.02.032.04.059.063.09.067.106.133.219.2.34.312.55.414 1.36.28 2.066l-.066-.011a1.357 1.357 0 0 1-.457-.16l-.3-.184a2.193 2.193 0 0 0-1.125-.313c-.004 0-.008.004-.012.004a2.147 2.147 0 0 0-1.137.309l-.148.09c-.254.152-.543.23-.828.23-.286 0-.575-.078-.829-.23l-.566-.344h-.004a.733.733 0 0 0-.238-.09c-.067-.332-.04-.601.074-.82zm15.585 11.75a1.565 1.565 0 0 1-1.562 1.484H5.62c-.832 0-1.52-.652-1.562-1.492l-.704-9.984.372.218c.398.243.843.36 1.289.356.445.004.894-.113 1.293-.356l.144-.085a1.36 1.36 0 0 1 .676-.192c.234.004.465.066.672.191l.3.18c.383.23.817.328 1.243.305.035-.004.074-.004.113-.008h.016c.285-.035.57-.125.832-.273.023-.008.05-.008.074-.024l.3-.18c.208-.124.438-.187.673-.19.234.003.464.066.675.19l.301.18c.32.192.676.29 1.031.305.008 0 .016.004.024.004.12.004.246 0 .367-.02.07-.008.14-.027.207-.043l.102-.023a2.18 2.18 0 0 0 .543-.223l.3-.18c.207-.124.442-.187.672-.19.235.003.465.066.676.19l.3.18c.348.211.74.313 1.134.309.003 0 .011.004.02.004.378 0 .757-.102 1.097-.297l.828-.371c.02-.008.031-.024.047-.032l.066-.03zm0 0"/>
    <path d="M5.031 18.164h2.957a.423.423 0 0 0 0-.844H5.031a.423.423 0 0 0 0 .844zm0 0M5.031 19.852h3.801a.42.42 0 0 0 .422-.422.42.42 0 0 0-.422-.422h-3.8a.42.42 0 0 0-.423.422.42.42 0 0 0 .422.422zm0 0M9.676 20.7H5.03a.423.423 0 0 0 0 .844l4.645-.001a.423.423 0 0 0 0-.844zm0 0M12.21 20.7h-.843a.423.423 0 0 0 0 .844l.844-.001a.423.423 0 0 0 0-.844zm0 0"/>
</svg>
